images/blog_logo.svg

<svg height="1065pt" viewBox="0 0 1065 1065" width="1065pt" xmlns="http://www.w3.org/2000/svg"><path d="m511.71 0h43.37c128.94 6.11 255.41 59.48 347.82 149.96 3.56 4.5 7.63 8.57 12.13 12.14 91 92.99 144.64 220.42 149.97 350.22v42.8c-6.12 128.93-59.49 255.39-149.98 347.8-4.49 3.54-8.55 7.61-12.1 12.1-92.45 90.53-219 143.93-348.01 149.98h-45.05c-128.92-6.12-255.38-59.49-347.77-149.98-3.56-4.49-7.62-8.55-12.11-12.1-90.62-92.55-144.06-219.26-149.98-348.43v-42.79c5.53-129.59 59.1-256.76 149.97-349.6 4.49-3.57 8.57-7.64 12.13-12.14 92.84-90.86 220.02-144.43 349.61-149.96m234.91 179.11c5.28 17.24 15.92 32.9 21.54 50.11-17.07-9.85-33.5-21.61-48.68-34.36-2.29-3.04-8.11-8.57-9.21-8.53-1.05 22.74 10.39 43.8 10.08 66.65-.03 3.34-.03 6.69 0 10.04-.9 16.71-6.32 32.73-13.34 47.78 10.6 8.66 19.35 19.38 29.6 28.42 9.16 10.27 20.15 18.67 29.57 28.72 31.01-16.08 63.46-36.53 99.84-33.61 19.26 1.75 26.6 22.96 42.94 30.23 4.44-16.72.19-34.97 7.66-51.25-10.91 3.85-21.27 9.6-32.39 12.66 2.3-23.77 2.78-47.7 1.69-71.57-12.33 8.72-21.87 22.24-34.9 29.86 1.2-21.55 12.29-43.24 6.49-64.79-7.15-1.75-16.63-.77-24 2.02-3.42 9.75-2.1 21.07-8.77 29.75-.03.04-.09.12-.12.16-2.59 3.97-5.6 7.61-8.72 11.16-2.84 2.02-5.36 4.48-7.35 7.34-5.33 4.44-10.66 8.9-16.37 12.85-.05.04-.15.12-.2.17-.48.31-1.45.95-1.94 1.26-.06.03-.19.08-.25.11-7.53 4.71-18.41 10.06-26.3 3.23-6.28-6.62-2.79-16.44 2.37-22.56 9.6-12.27 14.32-27.69 13.54-43.24.78.18.71-9.68.01-9.42-.48-14.12.41-28.61-3.26-42.36-9.68 3.57-19.58 6.46-29.53 9.17m-210.48 159.04c-37.64 41.64-67.52 89.51-96.78 137.22-55.02 92.73-105 188.34-151.72 285.48-12.29 27.42-32.1 54.76-28.67 86.18.82 12.02 11.28 21.14 23.01 21.98 24.65 1.55 48.04-8.4 70.33-17.71 34.85-15.72 67.46-35.89 99.74-56.29 72.54-46.39 144.44-95.36 205.25-156.72 45.04-43.63 83.93-92.9 124.22-140.87 15.45-18.64 10.02-45.37.52-65.47-11.07-24.82-28.76-46.09-49-63.97-15.33-13.31-28.12-29.62-44-42.19-18.05-18.73-42.09-34.65-68.9-35.48-33.87 1.44-61.48 24.61-84 47.84z" fill="#333"/><g fill="#6de00f"><path d="m149.97 162.1c3.94-4.15 7.98-8.2 12.13-12.14-3.56 4.5-7.64 8.57-12.13 12.14z"/><path d="m902.9 149.96c4.14 3.94 8.19 7.99 12.13 12.14-4.5-3.57-8.57-7.64-12.13-12.14z"/><path d="m710.27 186.33c1.1-.04 6.92 5.49 9.21 8.53-3.36-2.51-6.44-5.39-9.21-8.53z"/><path d="m779.41 212.3c.7-.26.77 9.6-.01 9.42-.3-3.14-.29-6.29.01-9.42z"/><path d="m833.51 221.49c7.37-2.79 16.85-3.77 24-2.02 5.8 21.55-5.29 43.24-6.49 64.79 13.03-7.62 22.57-21.14 34.9-29.86 1.09 23.87.61 47.8-1.69 71.57 11.12-3.06 21.48-8.81 32.39-12.66-7.47 16.28-3.22 34.53-7.66 51.25-16.34-7.27-23.68-28.48-42.94-30.23-36.38-2.92-68.83 17.53-99.84 33.61-9.42-10.05-20.41-18.45-29.57-28.72 18.12 2.01 38.92 3.22 53.26-10.26 19.92-18.79 28.87-45.94 35.76-71.73-.07-1.87 2.25-5.99-.89-5.99 6.67-8.68 5.35-20 8.77-29.75z"/><path d="m824.62 251.4c.03-.04.09-.12.12-.16-.03.04-.09.12-.12.16z"/><path d="m720.35 252.98c.51 3.32.52 6.71 0 10.04-.03-3.35-.03-6.7 0-10.04z"/><path d="m808.55 269.9c1.99-2.86 4.51-5.32 7.35-7.34-2.02 2.85-4.5 5.34-7.35 7.34z"/><path d="m791.98 282.92c.05-.05.15-.13.2-.17-.05.04-.15.12-.2.17z"/><path d="m790.04 284.18c.49-.31 1.46-.95 1.94-1.26-.48.31-1.45.95-1.94 1.26z"/><path d="m789.79 284.29c.06-.03.19-.08.25-.11-.06.03-.19.08-.25.11z"/><path d="m149.98 902.92c4.49 3.55 8.55 7.61 12.11 12.1-4.14-3.93-8.18-7.97-12.11-12.1z"/><path d="m902.92 915.02c3.55-4.49 7.61-8.56 12.1-12.1-3.93 4.13-7.97 8.16-12.1 12.1z"/></g><path d="m746.62 179.11c9.95-2.71 19.85-5.6 29.53-9.17 3.67 13.75 2.78 28.24 3.26 42.36-.3 3.13-.31 6.28-.01 9.42.78 15.55-3.94 30.97-13.54 43.24-5.16 6.12-8.65 15.94-2.37 22.56 7.89 6.83 18.77 1.48 26.3-3.23.06-.03.19-.08.25-.11.49-.31 1.46-.95 1.94-1.26.05-.05.15-.13.2-.17 5.71-3.95 11.04-8.41 16.37-12.85 2.85-2 5.33-4.49 7.35-7.34 3.12-3.55 6.13-7.19 8.72-11.16.03-.04.09-.12.12-.16 3.14 0 .82 4.12.89 5.99-6.89 25.79-15.84 52.94-35.76 71.73-14.34 13.48-35.14 12.27-53.26 10.26-10.25-9.04-19-19.76-29.6-28.42 7.02-15.05 12.44-31.07 13.34-47.78.52-3.33.51-6.72 0-10.04.31-22.85-11.13-43.91-10.08-66.65 2.77 3.14 5.85 6.02 9.21 8.53 15.18 12.75 31.61 24.51 48.68 34.36-5.62-17.21-16.26-32.87-21.54-50.11z" fill="#80eb10"/><path d="m536.14 338.15c22.52-23.23 50.13-46.4 84-47.84 26.81.83 50.85 16.75 68.9 35.48 19.64 62.4 2.67 130.21-30.26 184.91-4.22 6.37-7.47 16.81-17.15 14.94-25.96-6.32-46.15-25.26-65.66-42.4-2.19 1.46-3.9 3.49-5.64 5.44-2.02 1.45-4.95 2.64-4.96 5.57 20.72 19.94 44.58 39.79 73.21 46.6-25.11 36.72-57.24 68.04-90.15 97.71-27.6 2.07-51.42-17.08-71.13-34.26-4.93-6.68-10.93-12.65-17.59-17.6-3.77-3.63-7.08-7.69-10.7-11.46-4.3 2.64-8 6.18-11.64 9.65 3.46 6.08 9.16 10.33 13.59 15.62 2.24 4.58 5.96 8.26 10.52 10.53 19.21 18.72 41.99 35.17 68.29 41.97-27.3 25.55-58.69 47.26-91.19 65.9-15.05 8.63-39.01 8.41-46.73-9.81-2.26-9.18-11.22.19-16.6 1.66 4.3 10.85 12.45 20.6 23.17 25.5 1.39 3.67-3.31 4.29-5.67 5.58-33.22 13.05-69.24 22.72-105.11 19.01 46.72-97.14 96.7-192.75 151.72-285.48 29.26-47.71 59.14-95.58 96.78-137.22z" fill="#f76110"/><path d="m689.04 325.79c15.88 12.57 28.67 28.88 44 42.19 20.24 17.88 37.93 39.15 49 63.97 9.5 20.1 14.93 46.83-.52 65.47-40.29 47.97-79.18 97.24-124.22 140.87-60.81 61.36-132.71 110.33-205.25 156.72-32.28 20.4-64.89 40.57-99.74 56.29-22.29 9.31-45.68 19.26-70.33 17.71-11.73-.84-22.19-9.96-23.01-21.98-3.43-31.42 16.38-58.76 28.67-86.18 35.87 3.71 71.89-5.96 105.11-19.01 2.36-1.29 7.06-1.91 5.67-5.58 15.11 6.48 33.18 4.13 47.3-3.77-.86-5.09-4.66-9.16-7.14-13.58 32.5-18.64 63.89-40.35 91.19-65.9 7.87 1.03 16.22 3.46 23.97.63-1.12-5.18-2-10.77-5.31-15.08 32.91-29.67 65.04-60.99 90.15-97.71 18.34 4.75 38.88-7.31 42.3-26.16-4.84-1.25-9.88-2.9-14.91-2.24-3.17 10.12-14.04 16.2-24.34 13.19 9.68 1.87 12.93-8.57 17.15-14.94 32.93-54.7 49.9-122.51 30.26-184.91z" fill="#ef6110"/><path d="m565.37 494.25c.01-2.93 2.94-4.12 4.96-5.57-1.52 1.97-3.2 3.81-4.96 5.57z" fill="#ef6110"/><path d="m459.71 586.7c6.66 4.95 12.66 10.92 17.59 17.6-6.49-5.17-12.43-11.11-17.59-17.6z" fill="#ef6110"/><path d="m450.96 600.51c3.76 3.25 7.27 6.77 10.52 10.53-4.56-2.27-8.28-5.95-10.52-10.53z" fill="#ef6110"/><path d="m570.33 488.68c1.74-1.95 3.45-3.98 5.64-5.44 19.51 17.14 39.7 36.08 65.66 42.4 10.3 3.01 21.17-3.07 24.34-13.19 5.03-.66 10.07.99 14.91 2.24-3.42 18.85-23.96 30.91-42.3 26.16-28.63-6.81-52.49-26.66-73.21-46.6 1.76-1.76 3.44-3.6 4.96-5.57z" fill="#c22500"/><path d="m437.37 584.89c3.64-3.47 7.34-7.01 11.64-9.65 3.62 3.77 6.93 7.83 10.7 11.46 5.16 6.49 11.1 12.43 17.59 17.6 19.71 17.18 43.53 36.33 71.13 34.26 3.31 4.31 4.19 9.9 5.31 15.08-7.75 2.83-16.1.4-23.97-.63-26.3-6.8-49.08-23.25-68.29-41.97-3.25-3.76-6.76-7.28-10.52-10.53-4.43-5.29-10.13-9.54-13.59-15.62z" fill="#c22500"/><path d="m375.25 710.76c5.38-1.47 14.34-10.84 16.6-1.66 7.72 18.22 31.68 18.44 46.73 9.81 2.48 4.42 6.28 8.49 7.14 13.58-14.12 7.9-32.19 10.25-47.3 3.77-10.72-4.9-18.87-14.65-23.17-25.5z" fill="#c22500"/></svg>

<?xml version="1.0" encoding="UTF-8" ?>
<!DOCTYPE svg PUBLIC "-//W3C//DTD SVG 1.1//EN" "http://www.w3.org/Graphics/SVG/1.1/DTD/svg11.dtd">
<svg width="1065pt" height="1065pt" viewBox="0 0 1065 1065" version="1.1" xmlns="http://www.w3.org/2000/svg">
<g id="#ffffffff">
</g>
<g id="#333333ff">
<path fill="#333333" opacity="1.00" d=" M 511.71 0.00 L 555.08 0.00 C 684.02 6.11 810.49 59.48 902.90 149.96 C 906.46 154.46 910.53 158.53 915.03 162.10 C 1006.03 255.09 1059.67 382.52 1065.00 512.32 L 1065.00 555.12 C 1058.88 684.05 1005.51 810.51 915.02 902.92 C 910.53 906.46 906.47 910.53 902.92 915.02 C 810.47 1005.55 683.92 1058.95 554.91 1065.00 L 509.86 1065.00 C 380.94 1058.88 254.48 1005.51 162.09 915.02 C 158.53 910.53 154.47 906.47 149.98 902.92 C 59.36 810.37 5.92 683.66 0.00 554.49 L 0.00 511.70 C 5.53 382.11 59.10 254.94 149.97 162.10 C 154.46 158.53 158.54 154.46 162.10 149.96 C 254.94 59.10 382.12 5.53 511.71 0.00 M 746.62 179.11 C 751.90 196.35 762.54 212.01 768.16 229.22 C 751.09 219.37 734.66 207.61 719.48 194.86 C 717.19 191.82 711.37 186.29 710.27 186.33 C 709.22 209.07 720.66 230.13 720.35 252.98 C 720.32 256.32 720.32 259.67 720.35 263.02 C 719.45 279.73 714.03 295.75 707.01 310.80 C 717.61 319.46 726.36 330.18 736.61 339.22 C 745.77 349.49 756.76 357.89 766.18 367.94 C 797.19 351.86 829.64 331.41 866.02 334.33 C 885.28 336.08 892.62 357.29 908.96 364.56 C 913.40 347.84 909.15 329.59 916.62 313.31 C 905.71 317.16 895.35 322.91 884.23 325.97 C 886.53 302.20 887.01 278.27 885.92 254.40 C 873.59 263.12 864.05 276.64 851.02 284.26 C 852.22 262.71 863.31 241.02 857.51 219.47 C 850.36 217.72 840.88 218.70 833.51 221.49 C 830.09 231.24 831.41 242.56 824.74 251.24 C 824.71 251.28 824.65 251.36 824.62 251.40 C 822.03 255.37 819.02 259.01 815.90 262.56 C 813.06 264.58 810.54 267.04 808.55 269.90 C 803.22 274.34 797.89 278.80 792.18 282.75 C 792.13 282.79 792.03 282.87 791.98 282.92 C 791.50 283.23 790.53 283.87 790.04 284.18 C 789.98 284.21 789.85 284.26 789.79 284.29 C 782.26 289.00 771.38 294.35 763.49 287.52 C 757.21 280.90 760.70 271.08 765.86 264.96 C 775.46 252.69 780.18 237.27 779.40 221.72 C 780.18 221.90 780.11 212.04 779.41 212.30 C 778.93 198.18 779.82 183.69 776.15 169.94 C 766.47 173.51 756.57 176.40 746.62 179.11 M 536.14 338.15 C 498.50 379.79 468.62 427.66 439.36 475.37 C 384.34 568.10 334.36 663.71 287.64 760.85 C 275.35 788.27 255.54 815.61 258.97 847.03 C 259.79 859.05 270.25 868.17 281.98 869.01 C 306.63 870.56 330.02 860.61 352.31 851.30 C 387.16 835.58 419.77 815.41 452.05 795.01 C 524.59 748.62 596.49 699.65 657.30 638.29 C 702.34 594.66 741.23 545.39 781.52 497.42 C 796.97 478.78 791.54 452.05 782.04 431.95 C 770.97 407.13 753.28 385.86 733.04 367.98 C 717.71 354.67 704.92 338.36 689.04 325.79 C 670.99 307.06 646.95 291.14 620.14 290.31 C 586.27 291.75 558.66 314.92 536.14 338.15 Z" />
</g>
<g id="#6de00fff">
<path fill="#6de00f" opacity="1.00" d=" M 149.97 162.10 C 153.91 157.95 157.95 153.90 162.10 149.96 C 158.54 154.46 154.46 158.53 149.97 162.10 Z" />
<path fill="#6de00f" opacity="1.00" d=" M 902.90 149.96 C 907.04 153.90 911.09 157.95 915.03 162.10 C 910.53 158.53 906.46 154.46 902.90 149.96 Z" />
<path fill="#6de00f" opacity="1.00" d=" M 710.27 186.33 C 711.37 186.29 717.19 191.82 719.48 194.86 C 716.12 192.35 713.04 189.47 710.27 186.33 Z" />
<path fill="#6de00f" opacity="1.00" d=" M 779.41 212.30 C 780.11 212.04 780.18 221.90 779.40 221.72 C 779.10 218.58 779.11 215.43 779.41 212.30 Z" />
<path fill="#6de00f" opacity="1.00" d=" M 833.51 221.49 C 840.88 218.70 850.36 217.72 857.51 219.47 C 863.31 241.02 852.22 262.71 851.02 284.26 C 864.05 276.64 873.59 263.12 885.92 254.40 C 887.01 278.27 886.53 302.20 884.23 325.97 C 895.35 322.91 905.71 317.16 916.62 313.31 C 909.15 329.59 913.40 347.84 908.96 364.56 C 892.62 357.29 885.28 336.08 866.02 334.33 C 829.64 331.41 797.19 351.86 766.18 367.94 C 756.76 357.89 745.77 349.49 736.61 339.22 C 754.73 341.23 775.53 342.44 789.87 328.96 C 809.79 310.17 818.74 283.02 825.63 257.23 C 825.56 255.36 827.88 251.24 824.74 251.24 C 831.41 242.56 830.09 231.24 833.51 221.49 Z" />
<path fill="#6de00f" opacity="1.00" d=" M 824.62 251.40 C 824.65 251.36 824.71 251.28 824.74 251.24 C 824.71 251.28 824.65 251.36 824.62 251.40 Z" />
<path fill="#6de00f" opacity="1.00" d=" M 720.35 252.98 C 720.86 256.30 720.87 259.69 720.35 263.02 C 720.32 259.67 720.32 256.32 720.35 252.98 Z" />
<path fill="#6de00f" opacity="1.00" d=" M 808.55 269.90 C 810.54 267.04 813.06 264.58 815.90 262.56 C 813.88 265.41 811.40 267.90 808.55 269.90 Z" />
<path fill="#6de00f" opacity="1.00" d=" M 791.98 282.92 C 792.03 282.87 792.13 282.79 792.18 282.75 C 792.13 282.79 792.03 282.87 791.98 282.92 Z" />
<path fill="#6de00f" opacity="1.00" d=" M 790.04 284.18 C 790.53 283.87 791.50 283.23 791.98 282.92 C 791.50 283.23 790.53 283.87 790.04 284.18 Z" />
<path fill="#6de00f" opacity="1.00" d=" M 789.79 284.29 C 789.85 284.26 789.98 284.21 790.04 284.18 C 789.98 284.21 789.85 284.26 789.79 284.29 Z" />
<path fill="#6de00f" opacity="1.00" d=" M 149.98 902.92 C 154.47 906.47 158.53 910.53 162.09 915.02 C 157.95 911.09 153.91 907.05 149.98 902.92 Z" />
<path fill="#6de00f" opacity="1.00" d=" M 902.92 915.02 C 906.47 910.53 910.53 906.46 915.02 902.92 C 911.09 907.05 907.05 911.08 902.92 915.02 Z" />
</g>
<g id="#80eb10ff">
<path fill="#80eb10" opacity="1.00" d=" M 746.62 179.11 C 756.57 176.40 766.47 173.51 776.15 169.94 C 779.82 183.69 778.93 198.18 779.41 212.30 C 779.11 215.43 779.10 218.58 779.40 221.72 C 780.18 237.27 775.46 252.69 765.86 264.96 C 760.70 271.08 757.21 280.90 763.49 287.52 C 771.38 294.35 782.26 289.00 789.79 284.29 C 789.85 284.26 789.98 284.21 790.04 284.18 C 790.53 283.87 791.50 283.23 791.98 282.92 C 792.03 282.87 792.13 282.79 792.18 282.75 C 797.89 278.80 803.22 274.34 808.55 269.90 C 811.40 267.90 813.88 265.41 815.90 262.56 C 819.02 259.01 822.03 255.37 824.62 251.40 C 824.65 251.36 824.71 251.28 824.74 251.24 C 827.88 251.24 825.56 255.36 825.63 257.23 C 818.74 283.02 809.79 310.17 789.87 328.96 C 775.53 342.44 754.73 341.23 736.61 339.22 C 726.36 330.18 717.61 319.46 707.01 310.80 C 714.03 295.75 719.45 279.73 720.35 263.02 C 720.87 259.69 720.86 256.30 720.35 252.98 C 720.66 230.13 709.22 209.07 710.27 186.33 C 713.04 189.47 716.12 192.35 719.48 194.86 C 734.66 207.61 751.09 219.37 768.16 229.22 C 762.54 212.01 751.90 196.35 746.62 179.11 Z" />
</g>
<g id="#f76110ff">
<path fill="#f76110" opacity="1.00" d=" M 536.14 338.15 C 558.66 314.92 586.27 291.75 620.14 290.31 C 646.95 291.14 670.99 307.06 689.04 325.79 C 708.68 388.19 691.71 456.00 658.78 510.70 C 654.56 517.07 651.31 527.51 641.63 525.64 C 615.67 519.32 595.48 500.38 575.97 483.24 C 573.78 484.70 572.07 486.73 570.33 488.68 C 568.31 490.13 565.38 491.32 565.37 494.25 C 586.09 514.19 609.95 534.04 638.58 540.85 C 613.47 577.57 581.34 608.89 548.43 638.56 C 520.83 640.63 497.01 621.48 477.30 604.30 C 472.37 597.62 466.37 591.65 459.71 586.70 C 455.94 583.07 452.63 579.01 449.01 575.24 C 444.71 577.88 441.01 581.42 437.37 584.89 C 440.83 590.97 446.53 595.22 450.96 600.51 C 453.20 605.09 456.92 608.77 461.48 611.04 C 480.69 629.76 503.47 646.21 529.77 653.01 C 502.47 678.56 471.08 700.27 438.58 718.91 C 423.53 727.54 399.57 727.32 391.85 709.10 C 389.59 699.92 380.63 709.29 375.25 710.76 C 379.55 721.61 387.70 731.36 398.42 736.26 C 399.81 739.93 395.11 740.55 392.75 741.84 C 359.53 754.89 323.51 764.56 287.64 760.85 C 334.36 663.71 384.34 568.10 439.36 475.37 C 468.62 427.66 498.50 379.79 536.14 338.15 Z" />
</g>
<g id="#ef6110ff">
<path fill="#ef6110" opacity="1.00" d=" M 689.04 325.79 C 704.92 338.36 717.71 354.67 733.04 367.98 C 753.28 385.86 770.97 407.13 782.04 431.95 C 791.54 452.05 796.97 478.78 781.52 497.42 C 741.23 545.39 702.34 594.66 657.30 638.29 C 596.49 699.65 524.59 748.62 452.05 795.01 C 419.77 815.41 387.16 835.58 352.31 851.30 C 330.02 860.61 306.63 870.56 281.98 869.01 C 270.25 868.17 259.79 859.05 258.97 847.03 C 255.54 815.61 275.35 788.27 287.64 760.85 C 323.51 764.56 359.53 754.89 392.75 741.84 C 395.11 740.55 399.81 739.93 398.42 736.26 C 413.53 742.74 431.60 740.39 445.72 732.49 C 444.86 727.40 441.06 723.33 438.58 718.91 C 471.08 700.27 502.47 678.56 529.77 653.01 C 537.64 654.04 545.99 656.47 553.74 653.64 C 552.62 648.46 551.74 642.87 548.43 638.56 C 581.34 608.89 613.47 577.57 638.58 540.85 C 656.92 545.60 677.46 533.54 680.88 514.69 C 676.04 513.44 671.00 511.79 665.97 512.45 C 662.80 522.57 651.93 528.65 641.63 525.64 C 651.31 527.51 654.56 517.07 658.78 510.70 C 691.71 456.00 708.68 388.19 689.04 325.79 Z" />
<path fill="#ef6110" opacity="1.00" d=" M 565.37 494.25 C 565.38 491.32 568.31 490.13 570.33 488.68 C 568.81 490.65 567.13 492.49 565.37 494.25 Z" />
<path fill="#ef6110" opacity="1.00" d=" M 459.71 586.70 C 466.37 591.65 472.37 597.62 477.30 604.30 C 470.81 599.13 464.87 593.19 459.71 586.70 Z" />
<path fill="#ef6110" opacity="1.00" d=" M 450.96 600.51 C 454.72 603.76 458.23 607.28 461.48 611.04 C 456.92 608.77 453.20 605.09 450.96 600.51 Z" />
</g>
<g id="#c22500ff">
<path fill="#c22500" opacity="1.00" d=" M 570.33 488.68 C 572.07 486.73 573.78 484.70 575.97 483.24 C 595.48 500.38 615.67 519.32 641.63 525.64 C 651.93 528.65 662.80 522.57 665.97 512.45 C 671.00 511.79 676.04 513.44 680.88 514.69 C 677.46 533.54 656.92 545.60 638.58 540.85 C 609.95 534.04 586.09 514.19 565.37 494.25 C 567.13 492.49 568.81 490.65 570.33 488.68 Z" />
<path fill="#c22500" opacity="1.00" d=" M 437.37 584.89 C 441.01 581.42 444.71 577.88 449.01 575.24 C 452.63 579.01 455.94 583.07 459.71 586.70 C 464.87 593.19 470.81 599.13 477.30 604.30 C 497.01 621.48 520.83 640.63 548.43 638.56 C 551.74 642.87 552.62 648.46 553.74 653.64 C 545.99 656.47 537.64 654.04 529.77 653.01 C 503.47 646.21 480.69 629.76 461.48 611.04 C 458.23 607.28 454.72 603.76 450.96 600.51 C 446.53 595.22 440.83 590.97 437.37 584.89 Z" />
<path fill="#c22500" opacity="1.00" d=" M 375.25 710.76 C 380.63 709.29 389.59 699.92 391.85 709.10 C 399.57 727.32 423.53 727.54 438.58 718.91 C 441.06 723.33 444.86 727.40 445.72 732.49 C 431.60 740.39 413.53 742.74 398.42 736.26 C 387.70 731.36 379.55 721.61 375.25 710.76 Z" />
</g>
</svg>
